!!!OTL: SETZT EUCH BRUEDER IN DIE RUNDE
!!!ARE: Europa, Mitteleuropa, Deutschland
!!!SCT: F0490
!!!YEM: Copyright 1995, estate of Helmut Schaffrath.
**kern
*ICvox
*Ivox
*M4/4
*k[b-e-a-]
*E-:
=1
{4B-
4e-
4.B-
8G
=2
8B-
8A-
8F
8G
8F
8E-
4E-}
=3
{4B-
8e-
8c
4.B-
8G
=4
8B-
8A-
8F
8G
4E-
4r}
=5
{4.F
8B-
8B-
8An
8An
8c
=6
8c
8B-
8B-
8d
8d
8c
4c}
=7
{4.F
8B-
8B-
8An
8An
8c
=8
8c
8B-
8B-
8d
8d
8c
4c}
=9
{4e-
4c
4.f
8e-
=10
4d
4c
4B-}
{8B-
8B-
=11
4.e-
8B-
4.e-
8B-
=12
8A-
8G
8F
8E-}
{8c
8A-
8e-
8c
=13
4.B-
8G
8c
8B-
8A-
8G
=14
2F}
{4.B-
8A-
=15
8A-
8G
8F
8E-
4e-
8d
8c
=16
8c
8B-
4B-}
{8F
8G
8A-
8B-
=17
8c
8d
8e-
8f
4g
4f
=18
2e-
2r}
==
!!!AGN: Studenten -,  Burschenschafts - Lied
!!!ONB: ESAC (Essen Associative Code) Database: FINK
!!!AMT: simple quadruple
!!!AIN: vox
!!!EED: Helmut Schaffrath
!!!EEV: 1.0
*-
